dist/svg/u1F374.svg

<?xml version="1.0" encoding="UTF-8"?><svg id="Layer_1" xmlns="http://www.w3.org/2000/svg" viewBox="0 0 40 40"><rect x="0" y="0" width="40" height="40" transform="translate(40 40) rotate(-180)" style="fill:none;"/><g><path d="M29.44939,3.10408l-1.71967,17.39596-2.86066-.00003-1.55005-9.48629c-.38911-3.70259,1.72456-7.21421,5.17857-8.6036h0c.47624-.19157,.98853,.18194,.9518,.69395Z" style="fill:#d5d5d5;"/><path d="M13.28584,20.50001l-1.15393,15.31714c-.02338,1.00024,.78107,1.82373,1.78168,1.82373h1.60242c1.00061,0,1.80505-.82349,1.78168-1.82373l-1.15118-15.31714h-2.86066Z" style="fill:#767676;"/><path d="M24.86906,20.50001l-1.15393,15.31714c-.02338,1.00024,.78107,1.82373,1.78168,1.82373h1.60242c1.00061,0,1.80505-.82349,1.78168-1.82373l-1.15118-15.31714h-2.86066Z" style="fill:#767676;"/><path d="M16.09303,19.74196c.00812-1.07812,.85077-1.37976,.85077-1.37976l-.00482-.00488c.03546-.01721,.07312-.02588,.10846-.04395l2.10828-.74841c1.15259-.58911,1.85406-2.0542,1.70526-3.56177l-1.48663-10.79541c-.06696-.48633-.48267-.84863-.97363-.84863h-.00006c-.54755,0-.98956,.44751-.98267,.99512l.11639,9.30737c0,.34631-.16919,.6571-.43195,.79053-.17468,.0896-.37457,.0896-.54932,0-.26202-.13428-.43195-.44421-.43195-.79053l-.15826-9.33643c-.00909-.53613-.44635-.96606-.98267-.96606h-.53156c-.53625,0-.97351,.42993-.9826,.96606l-.15839,9.33643c0,.34631-.16919,.6571-.43262,.79053-.17334,.0896-.37396,.0896-.54865,0-.26202-.13428-.43195-.44421-.43195-.79053l.117-9.30737c.0069-.54761-.43512-.99512-.98273-.99512-.49097,0-.90662,.3623-.97357,.84863l-1.48663,10.79541c-.1488,1.50757,.55273,2.9718,1.70459,3.56177l2.1084,.74841c.03406,.01746,.07031,.02576,.10461,.04236l-.00629,.00647s.88165,.30896,.85535,1.43982l-.04938,.698h2.86066l-.05347-.75806Z" style="fill:#d5d5d5;"/></g></svg>

<svg id="Layer_1" data-name="Layer 1" xmlns="http://www.w3.org/2000/svg" viewBox="0 0 40 40"><defs><style>.cls-1{fill:none;}.cls-2{fill:#d5d5d5;}.cls-3{fill:#767676;}</style></defs><rect class="cls-1" width="40" height="40" transform="translate(40 40) rotate(-180)"/><path class="cls-2" d="M29.449,3.1,27.73,20.5H24.869l-1.55-9.486A8.336,8.336,0,0,1,28.5,2.41h0A.694.694,0,0,1,29.449,3.1Z"/><path class="cls-3" d="M13.286,20.5,12.132,35.817a1.783,1.783,0,0,0,1.782,1.824h1.6A1.783,1.783,0,0,0,17.3,35.817L16.146,20.5Z"/><path class="cls-3" d="M24.869,20.5,23.715,35.817A1.783,1.783,0,0,0,25.5,37.641h1.6a1.783,1.783,0,0,0,1.782-1.824L27.73,20.5Z"/><path class="cls-2" d="M16.093,19.742a1.43,1.43,0,0,1,.851-1.38l0,0c.035-.017.073-.026.108-.044l2.109-.748A3.6,3.6,0,0,0,20.861,14L19.374,3.208a.982.982,0,0,0-.973-.849h0a.983.983,0,0,0-.983,1l.116,9.308a.872.872,0,0,1-.432.79.592.592,0,0,1-.549,0,.875.875,0,0,1-.432-.79l-.158-9.337a.983.983,0,0,0-.983-.966h-.531a.983.983,0,0,0-.983.966l-.158,9.337a.873.873,0,0,1-.433.79.592.592,0,0,1-.549,0,.875.875,0,0,1-.432-.79l.117-9.308a.983.983,0,0,0-1.956-.146L8.569,14a3.6,3.6,0,0,0,1.7,3.562l2.109.748c.034.018.07.026.1.043l-.006.006a1.428,1.428,0,0,1,.855,1.44l-.049.7h2.86Z"/></svg>
